X:861
T:St. Kilda Wedding, The
R:Reel
B:The Athole Collection
M:C|
L:1/8
K:A
A/A/A A2 A>cec|B/B/B (cA F2 (EF|A/A/A Acec|1 f/f/f (fe fefa:|2 f/f/f (fe fefg||
agab aeea|fgag f2 (ed|cefg agfa|eaca B2 (AF:|

